icons/Category-6.svg

<svg width="24" height="24" viewBox="0 0 24 24" fill="none" xmlns="http://www.w3.org/2000/svg">
<g id="Category-6">
<path id="Vector" d="M10.4 7.5C10.4 5.84315 9.05685 4.5 7.39999 4.5C5.74314 4.5 4.39999 5.84315 4.39999 7.5C4.39999 9.15685 5.74314 10.5 7.39999 10.5C9.05685 10.5 10.4 9.15685 10.4 7.5Z" stroke="#00153F" stroke-width="1.5" stroke-linecap="round" stroke-linejoin="round"/>
<path id="Vector_2" d="M8.89999 13.5H5.89999C5.07157 13.5 4.39999 14.1716 4.39999 15V18C4.39999 18.8284 5.07157 19.5 5.89999 19.5H8.89999C9.72842 19.5 10.4 18.8284 10.4 18V15C10.4 14.1716 9.72842 13.5 8.89999 13.5Z" stroke="#00153F" stroke-width="1.5" stroke-linecap="round" stroke-linejoin="round"/>
<path id="Vector_3" d="M19.4 16.5C19.4 14.8431 18.0568 13.5 16.4 13.5C14.7431 13.5 13.4 14.8431 13.4 16.5C13.4 18.1569 14.7431 19.5 16.4 19.5C18.0568 19.5 19.4 18.1569 19.4 16.5Z" stroke="#00153F" stroke-width="1.5" stroke-linecap="round" stroke-linejoin="round"/>
<path id="Vector_4" d="M16.5 4.64L13.4 10H19.6L16.5 4.64Z" stroke="#00153F" stroke-width="1.5" stroke-linecap="round" stroke-linejoin="round"/>
</g>
</svg>

<svg xmlns="http://www.w3.org/2000/svg" fill="none" viewBox="0 0 24 24"><path stroke="currentColor" stroke-linecap="round" stroke-linejoin="round" stroke-width="1.5" d="M10.4 7.5a3 3 0 1 0-6 0 3 3 0 0 0 6 0Zm-1.5 6h-3A1.5 1.5 0 0 0 4.4 15v3a1.5 1.5 0 0 0 1.5 1.5h3a1.5 1.5 0 0 0 1.5-1.5v-3a1.5 1.5 0 0 0-1.5-1.5Zm10.5 3a3 3 0 1 0-6 0 3 3 0 0 0 6 0ZM16.5 4.64 13.4 10h6.2l-3.1-5.36Z"/></svg>
